server/static/assets/discord.svg

<svg xmlns="http://www.w3.org/2000/svg" fill="#5865F2" viewBox="0 10 292 60"><path d="M61.7958 16.494c-4.7222-2.2094-9.7714-3.8151-15.0502-4.7294-.6483 1.1721-1.4057 2.7486-1.9279 4.0027-5.6115-.8439-11.1714-.8439-16.6797 0-.5221-1.2541-1.2967-2.8306-1.9508-4.0027-5.2845.9143-10.3395 2.5259-15.0617 4.7411C1.60078 30.8988-.981215 44.9344.309785 58.7707 6.62708 63.4883 12.7493 66.3541 18.7682 68.2294c1.4861-2.0453 2.8115-4.2195 3.9533-6.5109-2.1746-.8263-4.2574-1.846-6.2254-3.0298.5221-.3868 1.0328-.7912 1.5262-1.2073 12.0034 5.6143 25.0454 5.6143 36.9054 0 .4992.4161 1.0098.8205 1.5262 1.2073-1.9738 1.1896-4.0623 2.2093-6.2369 3.0357 1.1418 2.2855 2.4615 4.4656 3.9533 6.5108 6.0247-1.8753 12.1526-4.741 18.4699-9.4645 1.5148-16.0398-2.5877-29.9465-10.8444-42.2767Zm-37.439 33.7675c-3.6033 0-6.5583-3.3639-6.5583-7.4603s2.8919-7.4661 6.5583-7.4661c3.6665 0 6.6214 3.3638 6.5583 7.4661.0057 4.0964-2.8918 7.4603-6.5583 7.4603Zm24.2364 0c-3.6033 0-6.5583-3.3639-6.5583-7.4603s2.8918-7.4661 6.5583-7.4661c3.6664 0 6.6214 3.3638 6.5583 7.4661 0 4.0964-2.8919 7.4603-6.5583 7.4603ZM98.0293 26.1707h15.6637c3.776 0 6.966.6036 9.583 1.805 2.61 1.2013 4.567 2.8774 5.864 5.0223 1.296 2.1449 1.95 4.6004 1.95 7.3665 0 2.7075-.677 5.163-2.031 7.3606-1.354 2.2035-3.414 3.9441-6.185 5.2275-2.771 1.2834-6.203 1.928-10.305 1.928H98.0293V26.1707Zm14.3787 21.4138c2.542 0 4.499-.6505 5.864-1.9457 1.366-1.301 2.049-3.0708 2.049-5.3153 0-2.0805-.609-3.739-1.825-4.9814s-3.058-1.8694-5.52-1.8694h-4.9v14.1118h4.332ZM154.541 54.8456c-2.169-.5743-4.126-1.4065-5.864-2.5024v-6.8097c1.314 1.0372 3.075 1.8929 5.284 2.5668 2.209.6681 4.344 1.0021 6.409 1.0021.964 0 1.693-.1289 2.186-.3868.494-.2578.741-.5684.741-.9259 0-.4102-.132-.7501-.402-1.0256-.27-.2754-.792-.504-1.566-.6974l-4.82-1.1076c-2.76-.6563-4.717-1.5647-5.881-2.7309-1.165-1.1604-1.745-2.6841-1.745-4.5711 0-1.5882.505-2.9653 1.527-4.1433 1.015-1.1779 2.461-2.0863 4.337-2.7251 1.877-.6446 4.068-.9669 6.587-.9669 2.249 0 4.309.2461 6.186.7384 1.876.4923 3.425 1.1193 4.659 1.887v6.4406c-1.263-.7677-2.709-1.3713-4.361-1.8285-1.647-.4512-3.339-.6739-5.084-.6739-2.519 0-3.775.4395-3.775 1.3127 0 .4103.195.715.585.9201.39.2051 1.107.4161 2.146.6388l4.016.7384c2.623.463 4.579 1.2776 5.864 2.4379 1.286 1.1604 1.928 2.8775 1.928 5.1513 0 2.4906-1.061 4.4656-3.19 5.9307-2.129 1.4651-5.147 2.1976-9.06 2.1976-2.301-.0058-4.538-.293-6.707-.8673ZM182.978 53.9839c-2.3-1.1487-4.039-2.7075-5.198-4.6766-1.159-1.9691-1.744-4.1843-1.744-6.6457 0-2.4613.602-4.6648 1.807-6.6046s2.972-3.4635 5.302-4.5711c2.329-1.1076 5.112-1.6585 8.354-1.6585 4.016 0 7.35.8615 10.001 2.5844v7.5072c-.935-.6564-2.026-1.1897-3.271-1.5999-1.245-.4102-2.576-.6154-3.999-.6154-2.49 0-4.435.463-5.841 1.3948-1.406.9318-2.111 2.1449-2.111 3.651 0 1.4768.682 2.6841 2.048 3.6335 1.366.9435 3.345 1.4182 5.944 1.4182 1.337 0 2.657-.1993 3.959-.5919 1.297-.3985 2.416-.8849 3.351-1.4593v7.261c-2.943 1.805-6.357 2.7075-10.242 2.7075-3.27-.0117-6.059-.586-8.36-1.7346ZM211.518 53.9841c-2.318-1.1486-4.085-2.7192-5.302-4.7176-1.216-1.9984-1.83-4.2253-1.83-6.6867 0-2.4613.608-4.659 1.83-6.587 1.222-1.9281 2.978-3.4401 5.285-4.536 2.3-1.0959 5.049-1.6409 8.233-1.6409 3.185 0 5.933.545 8.234 1.6409 2.301 1.0959 4.057 2.5962 5.262 4.5125 1.205 1.9164 1.807 4.114 1.807 6.6047 0 2.4613-.602 4.6883-1.807 6.6866-1.205 1.9984-2.967 3.569-5.285 4.7176-2.318 1.1487-5.055 1.723-8.216 1.723-3.162 0-5.899-.5685-8.211-1.7171Zm12.204-7.2786c.976-.9962 1.469-2.3148 1.469-3.9557 0-1.6409-.488-2.9478-1.469-3.9148-.975-.9728-2.307-1.4592-3.993-1.4592-1.716 0-3.059.4864-4.04 1.4592-.975.9729-1.463 2.2739-1.463 3.9148 0 1.6409.488 2.9595 1.463 3.9557.976.9963 2.324 1.5003 4.04 1.5003 1.686-.0059 3.018-.504 3.993-1.5003ZM259.17 31.3395v8.8609c-1.021-.6857-2.341-1.0256-3.976-1.0256-2.141 0-3.793.6623-4.941 1.9867-1.153 1.3245-1.727 3.3873-1.727 6.1768v7.5482h-9.84V30.8883h9.64v7.6302c.533-2.7896 1.4-4.8465 2.593-6.1769 1.188-1.3244 2.725-1.9866 4.596-1.9866 1.417 0 2.634.3282 3.655.9845ZM291.864 25.3503v29.5363h-9.841v-5.3739c-.832 2.0218-2.094 3.5631-3.792 4.6179-1.699 1.0491-3.799 1.5765-6.289 1.5765-2.226 0-4.165-.5509-5.824-1.6585-1.658-1.1076-2.937-2.6254-3.838-4.5535-.895-1.9281-1.349-4.1081-1.349-6.546-.028-2.5141.448-4.7704 1.429-6.7688.976-1.9984 2.358-3.5572 4.137-4.6766 1.779-1.1193 3.81-1.6819 6.088-1.6819 4.688 0 7.832 2.0804 9.438 6.2354V25.3503h9.841Zm-11.309 21.1912c1.004-.9963 1.503-2.2914 1.503-3.8737 0-1.5296-.488-2.7779-1.463-3.7331-.976-.9552-2.313-1.4358-3.994-1.4358-1.658 0-2.983.4864-3.976 1.4592-.993.9729-1.486 2.2328-1.486 3.7917s.493 2.8306 1.486 3.8151c.993.9845 2.301 1.4768 3.936 1.4768 1.658-.0058 2.989-.504 3.994-1.5002ZM139.382 33.4432c2.709 0 4.906-2.0151 4.906-4.5008s-2.197-4.5007-4.906-4.5007c-2.71 0-4.906 2.015-4.906 4.5007s2.196 4.5008 4.906 4.5008ZM134.472 36.5435c3.006 1.3244 6.736 1.383 9.811 0v18.4719h-9.811V36.5435Z"/></svg>

<svg xmlns="http://www.w3.org/2000/svg" viewBox="0 10 292 60" fill="#5865F2">
<path d="M61.7958 16.494C57.0736 14.2846 52.0244 12.6789 46.7456 11.7646C46.0973 12.9367 45.3399 14.5132 44.8177 15.7673C39.2062 14.9234 33.6463 14.9234 28.138 15.7673C27.6159 14.5132 26.8413 12.9367 26.1872 11.7646C20.9027 12.6789 15.8477 14.2905 11.1255 16.5057C1.60078 30.8988 -0.981215 44.9344 0.309785 58.7707C6.62708 63.4883 12.7493 66.3541 18.7682 68.2294C20.2543 66.1841 21.5797 64.0099 22.7215 61.7185C20.5469 60.8922 18.4641 59.8725 16.4961 58.6887C17.0182 58.3019 17.5289 57.8975 18.0223 57.4814C30.0257 63.0957 43.0677 63.0957 54.9277 57.4814C55.4269 57.8975 55.9375 58.3019 56.4539 58.6887C54.4801 59.8783 52.3916 60.898 50.217 61.7244C51.3588 64.0099 52.6785 66.19 54.1703 68.2352C60.195 66.3599 66.3229 63.4942 72.6402 58.7707C74.155 42.7309 70.0525 28.8242 61.7958 16.494ZM24.3568 50.2615C20.7535 50.2615 17.7985 46.8976 17.7985 42.8012C17.7985 38.7048 20.6904 35.3351 24.3568 35.3351C28.0233 35.3351 30.9782 38.6989 30.9151 42.8012C30.9208 46.8976 28.0233 50.2615 24.3568 50.2615ZM48.5932 50.2615C44.9899 50.2615 42.0349 46.8976 42.0349 42.8012C42.0349 38.7048 44.9267 35.3351 48.5932 35.3351C52.2596 35.3351 55.2146 38.6989 55.1515 42.8012C55.1515 46.8976 52.2596 50.2615 48.5932 50.2615Z"/>
<path d="M98.0293 26.1707H113.693C117.469 26.1707 120.659 26.7743 123.276 27.9757C125.886 29.177 127.843 30.8531 129.14 32.998C130.436 35.1429 131.09 37.5984 131.09 40.3645C131.09 43.072 130.413 45.5275 129.059 47.7251C127.705 49.9286 125.645 51.6692 122.874 52.9526C120.103 54.236 116.671 54.8806 112.569 54.8806H98.0293V26.1707ZM112.408 47.5845C114.95 47.5845 116.907 46.934 118.272 45.6388C119.638 44.3378 120.321 42.568 120.321 40.3235C120.321 38.243 119.712 36.5845 118.496 35.3421C117.28 34.0997 115.438 33.4727 112.976 33.4727H108.076V47.5845H112.408Z"/>
<path d="M154.541 54.8456C152.372 54.2713 150.415 53.4391 148.677 52.3432V45.5335C149.991 46.5707 151.752 47.4264 153.961 48.1003C156.17 48.7684 158.305 49.1024 160.37 49.1024C161.334 49.1024 162.063 48.9735 162.556 48.7156C163.05 48.4578 163.297 48.1472 163.297 47.7897C163.297 47.3795 163.165 47.0396 162.895 46.7641C162.625 46.4887 162.103 46.2601 161.329 46.0667L156.509 44.9591C153.749 44.3028 151.792 43.3944 150.628 42.2282C149.463 41.0678 148.883 39.5441 148.883 37.6571C148.883 36.0689 149.388 34.6918 150.41 33.5138C151.425 32.3359 152.871 31.4275 154.747 30.7887C156.624 30.1441 158.815 29.8218 161.334 29.8218C163.583 29.8218 165.643 30.0679 167.52 30.5602C169.396 31.0525 170.945 31.6795 172.179 32.4472V38.8878C170.916 38.1201 169.47 37.5165 167.818 37.0593C166.171 36.6081 164.479 36.3854 162.734 36.3854C160.215 36.3854 158.959 36.8249 158.959 37.6981C158.959 38.1084 159.154 38.4131 159.544 38.6182C159.934 38.8233 160.651 39.0343 161.69 39.257L165.706 39.9954C168.329 40.4584 170.285 41.273 171.57 42.4333C172.856 43.5937 173.498 45.3108 173.498 47.5846C173.498 50.0752 172.437 52.0502 170.308 53.5153C168.179 54.9804 165.161 55.7129 161.248 55.7129C158.947 55.7071 156.71 55.4199 154.541 54.8456Z"/>
<path d="M182.978 53.9839C180.678 52.8352 178.939 51.2764 177.78 49.3073C176.621 47.3382 176.036 45.123 176.036 42.6616C176.036 40.2003 176.638 37.9968 177.843 36.057C179.048 34.1172 180.815 32.5935 183.145 31.4859C185.474 30.3783 188.257 29.8274 191.499 29.8274C195.515 29.8274 198.849 30.6889 201.5 32.4118V39.919C200.565 39.2626 199.474 38.7293 198.229 38.3191C196.984 37.9089 195.653 37.7037 194.23 37.7037C191.74 37.7037 189.795 38.1667 188.389 39.0985C186.983 40.0303 186.278 41.2434 186.278 42.7495C186.278 44.2263 186.96 45.4336 188.326 46.383C189.692 47.3265 191.671 47.8012 194.27 47.8012C195.607 47.8012 196.927 47.6019 198.229 47.2093C199.526 46.8108 200.645 46.3244 201.58 45.75V53.011C198.637 54.816 195.223 55.7185 191.338 55.7185C188.068 55.7068 185.279 55.1325 182.978 53.9839Z"/>
<path d="M211.518 53.9841C209.2 52.8355 207.433 51.2649 206.216 49.2665C205 47.2681 204.386 45.0412 204.386 42.5798C204.386 40.1185 204.994 37.9208 206.216 35.9928C207.438 34.0647 209.194 32.5527 211.501 31.4568C213.801 30.3609 216.55 29.8159 219.734 29.8159C222.919 29.8159 225.667 30.3609 227.968 31.4568C230.269 32.5527 232.025 34.053 233.23 35.9693C234.435 37.8857 235.037 40.0833 235.037 42.574C235.037 45.0353 234.435 47.2623 233.23 49.2606C232.025 51.259 230.263 52.8296 227.945 53.9782C225.627 55.1269 222.89 55.7012 219.729 55.7012C216.567 55.7012 213.83 55.1327 211.518 53.9841ZM223.722 46.7055C224.698 45.7093 225.191 44.3907 225.191 42.7498C225.191 41.1089 224.703 39.802 223.722 38.835C222.747 37.8622 221.415 37.3758 219.729 37.3758C218.013 37.3758 216.67 37.8622 215.689 38.835C214.714 39.8079 214.226 41.1089 214.226 42.7498C214.226 44.3907 214.714 45.7093 215.689 46.7055C216.665 47.7018 218.013 48.2058 219.729 48.2058C221.415 48.1999 222.747 47.7018 223.722 46.7055Z"/>
<path d="M259.17 31.3395V40.2004C258.149 39.5147 256.829 39.1748 255.194 39.1748C253.053 39.1748 251.401 39.8371 250.253 41.1615C249.1 42.486 248.526 44.5488 248.526 47.3383V54.8865H238.686V30.8883H248.326V38.5185C248.859 35.7289 249.726 33.672 250.919 32.3416C252.107 31.0172 253.644 30.355 255.515 30.355C256.932 30.355 258.149 30.6832 259.17 31.3395Z"/>
<path d="M291.864 25.3503V54.8866H282.023V49.5127C281.191 51.5345 279.929 53.0758 278.231 54.1306C276.532 55.1797 274.432 55.7071 271.942 55.7071C269.716 55.7071 267.777 55.1562 266.118 54.0486C264.46 52.941 263.181 51.4232 262.28 49.4951C261.385 47.567 260.931 45.387 260.931 42.9491C260.903 40.435 261.379 38.1787 262.36 36.1803C263.336 34.1819 264.718 32.6231 266.497 31.5037C268.276 30.3844 270.307 29.8218 272.585 29.8218C277.273 29.8218 280.417 31.9022 282.023 36.0572V25.3503H291.864ZM280.555 46.5415C281.559 45.5452 282.058 44.2501 282.058 42.6678C282.058 41.1382 281.57 39.8899 280.595 38.9347C279.619 37.9795 278.282 37.4989 276.601 37.4989C274.943 37.4989 273.618 37.9853 272.625 38.9581C271.632 39.931 271.139 41.1909 271.139 42.7498C271.139 44.3087 271.632 45.5804 272.625 46.5649C273.618 47.5494 274.926 48.0417 276.561 48.0417C278.219 48.0359 279.55 47.5377 280.555 46.5415Z"/>
<path d="M139.382 33.4432C142.091 33.4432 144.288 31.4281 144.288 28.9424C144.288 26.4567 142.091 24.4417 139.382 24.4417C136.672 24.4417 134.476 26.4567 134.476 28.9424C134.476 31.4281 136.672 33.4432 139.382 33.4432Z"/>
<path d="M134.472 36.5435C137.478 37.8679 141.208 37.9265 144.283 36.5435V55.0154H134.472V36.5435Z"/>
</svg>
